packages/core/src/svgs/nxt.svg

<svg width="24" height="24" viewBox="0 0 24 24" fill="none" xmlns="http://www.w3.org/2000/svg">
<g clip-path="url(#clip0_31_15045)">
<path d="M0 0H24V24H0V0Z" fill="#008FBB"/>
<path d="M1.71436 13.4998C1.71436 13.3293 1.78208 13.1658 1.90264 13.0452C2.0232 12.9247 2.18672 12.8569 2.35721 12.8569H4.50007C4.67057 12.8569 4.83408 12.9247 4.95464 13.0452C5.0752 13.1658 5.14293 13.3293 5.14293 13.4998C5.14293 13.6703 5.0752 13.8338 4.95464 13.9544C4.83408 14.0749 4.67057 14.1426 4.50007 14.1426H2.35721C2.18672 14.1426 2.0232 14.0749 1.90264 13.9544C1.78208 13.8338 1.71436 13.6703 1.71436 13.4998ZM15.4286 10.4998C15.4286 10.3293 15.4964 10.1658 15.6169 10.0452C15.7375 9.92466 15.901 9.85693 16.0715 9.85693H21.6429C21.8134 9.85693 21.9769 9.92466 22.0975 10.0452C22.2181 10.1658 22.2858 10.3293 22.2858 10.4998V12.1742C22.2858 12.3447 22.2181 12.5082 22.0975 12.6288C21.9769 12.7493 21.8134 12.8171 21.6429 12.8171C21.4724 12.8171 21.3089 12.7493 21.1884 12.6288C21.0678 12.5082 21.0001 12.3447 21.0001 12.1742V11.1426H16.0715C15.901 11.1426 15.7375 11.0749 15.6169 10.9544C15.4964 10.8338 15.4286 10.6703 15.4286 10.4998ZM1.71436 10.4998C1.71436 10.3293 1.78208 10.1658 1.90264 10.0452C2.0232 9.92466 2.18672 9.85693 2.35721 9.85693H4.50007C4.62007 9.85693 4.73793 9.89036 4.83993 9.95422L9.50321 12.8569H11.3688C11.5393 12.8569 11.7028 12.9247 11.8234 13.0452C11.9439 13.1658 12.0116 13.3293 12.0116 13.4998C12.0116 13.6703 11.9439 13.8338 11.8234 13.9544C11.7028 14.0749 11.5393 14.1426 11.3688 14.1426H9.31978C9.19963 14.1426 9.08189 14.1089 8.97993 14.0454L4.31578 11.1426H2.35721C2.18672 11.1426 2.0232 11.0749 1.90264 10.9544C1.78208 10.8338 1.71436 10.6703 1.71436 10.4998ZM8.5715 10.4998C8.5715 10.3293 8.63923 10.1658 8.75979 10.0452C8.88035 9.92466 9.04386 9.85693 9.21436 9.85693H11.5586C11.6701 9.85693 11.7794 9.88608 11.8762 9.94093L17.0002 12.8569H19.0715C19.242 12.8569 19.4055 12.9247 19.5261 13.0452C19.6466 13.1658 19.7144 13.3293 19.7144 13.4998C19.7144 13.6703 19.6466 13.8338 19.5261 13.9544C19.4055 14.0749 19.242 14.1426 19.0715 14.1426H16.8301C16.7186 14.1427 16.609 14.1137 16.5121 14.0586L11.3885 11.1426H9.21436C9.04386 11.1426 8.88035 11.0749 8.75979 10.9544C8.63923 10.8338 8.5715 10.6703 8.5715 10.4998Z" fill="white"/>
</g>
<defs>
<clipPath id="clip0_31_15045">
<rect width="24" height="24" fill="white"/>
</clipPath>
</defs>
</svg>

<svg xmlns="http://www.w3.org/2000/svg" width="24" height="24" fill="none" viewBox="0 0 24 24"><g clip-path="url(#a)"><path fill="#008FBB" d="M0 0h24v24H0z"/><path fill="#fff" d="M1.714 13.5a.643.643 0 0 1 .643-.643H4.5a.643.643 0 0 1 0 1.286H2.357a.643.643 0 0 1-.643-.643m13.715-3a.643.643 0 0 1 .643-.643h5.57a.643.643 0 0 1 .644.643v1.674a.643.643 0 1 1-1.286 0v-1.031h-4.928a.643.643 0 0 1-.643-.643m-13.715 0a.643.643 0 0 1 .643-.643H4.5a.64.64 0 0 1 .34.097l4.663 2.903h1.866a.643.643 0 0 1 0 1.286h-2.05a.64.64 0 0 1-.34-.098l-4.663-2.902H2.357a.643.643 0 0 1-.643-.643m6.858 0a.643.643 0 0 1 .642-.643h2.345c.111 0 .22.03.317.084L17 12.857h2.072a.643.643 0 0 1 0 1.286H16.83a.64.64 0 0 1-.318-.084l-5.123-2.916H9.214a.643.643 0 0 1-.643-.643"/></g><defs><clipPath id="a"><path fill="#fff" d="M0 0h24v24H0z"/></clipPath></defs></svg>
